!!!OTL: Jianli xinshijie
!!!ARE: Asia, China,ÿHunan Liuyang
!! I, 525
!!!SCT: C2189
!!!YEM: Copyright 1995, estate of Helmut Schaffrath.
**kern
*ICvox
*Ivox
*M2/4
*k[]
*C:
{8a
4a
8cc
=1
8.a
16cc
8e
8g
=2
8a
4a
8cc
=3
8.dd
16gg
8ee
8dd
=4
8cc
8a
4cc}
=5
{8a
4a
8cc
=6
8a
8g
8e
16d
16e
=7
2g
=8
8a
8dd
8cc
8a
=9
2g}
=10
{8dd
8gg
8ee
8dd
=11
4.cc
8a
=12
8dd
8gg
8ee
8dd
=13
8cc
8a
8dd
8b
=14
8a
4a
8cc
=15
8.a
16g
8e
16d
16e
=16
4g
4e}
=17
{8e
8d
8e
8g
=18
8a
8g
4a
=19
8cc
8dd
8cc
8a}
=20
{8.a
16cc
8a
8g
=21
8e
8g
8e
8d
=22
8.a
16cc
8a
8g
=23
8e
8g
8e
8d}
=24
{8ee
8ee
8ee
8gg
=25
8.ee
16dd
8cc
8a
=26
4.dd
8r
=27
8ee
8aa
8gg
8ee
=28
2dd}
==
!!!AGN: Xiaodiao, Dieduanqiao
!!!ONB: ESAC (Essen Associative Code) Database: SENGANSU
!!!AMT: simple duple
!!!AIN: vox
!!!EED: Helmut Schaffrath
!!!EEV: 1.0
*-
